!!!SOCIAL_FUNCTION:	songs connected with ceremonies
!!!PDT:	1929
!!!OTL: No_97_The_Dwelling_Place_of_the_Sun.krn
!!!REG: Southwest
!!!LANG: Non-Tone
!!!LING_GROUP: Uto-Aztecan
**kern
*staff1
*clefF4
*k[b-e-a-]
*M2/4
16B-\
=1
4B-\
8.f\L
16f\Jk
=2
4f\
8f\
8r
=3
4g\
8.e-\L
16e-\Jk
=4
4e-\
12e-\L
12c\
12e-\J
=5
8.e-\L
16c\Jk
8.c\L
16c\Jk
=6
4c\
4r
=7
8c\L
8f\J
8f\L
8c\J
=8||
*M3/4
16B-\LL
16B-\J
8B-\J
8.B-\L
16B-\Jk
16.B-\LL
32A-\K
16A-\JJ
16r
=9||
*M2/4
8c\L
8B-\J
4B-\
=10||
*M3/4
8B-\L
16B-\L
16B-\JJ
8B-\L
16.B-\L
32B-\JJk
(16.B-\LL
32A-\K)
16A-\JJ
16r
=11
8c\L
8B-\J
4B-\
8B-\L
16B-\L
16A-\JJ
=12||
*M2/4
8B-\L
16B-\L
16B-\JJ
8B-\L
8A-\J
=13
8B-\L
8B-\J
8B-\L
8B-\J
==
*-
